img/lamp.svg

<svg width="33" height="34" viewBox="0 0 33 34" fill="none" xmlns="http://www.w3.org/2000/svg">
<path d="M16.4633 25.133C21.1567 25.133 24.9613 21.3247 24.9613 16.6269C24.9613 11.929 21.1567 8.12067 16.4633 8.12067C11.77 8.12067 7.96533 11.929 7.96533 16.6269C7.96533 21.3247 11.77 25.133 16.4633 25.133Z" fill="#F8F6D0"/>
<path fill-rule="evenodd" clip-rule="evenodd" d="M10.3769 22.5626C11.369 23.492 11.6914 24.1931 11.8106 24.53C11.899 24.7829 11.9873 25.0782 11.9873 25.0782C12.1481 25.6318 12.1569 25.8236 12.3159 26.3957C12.4352 26.8202 12.4926 27.0359 12.6013 27.1853C12.8336 27.5178 13.1675 27.6761 13.4343 27.7786C14.7258 28.272 17.9341 28.7681 19.5525 27.8671C19.8226 27.7263 20.0555 27.5232 20.2318 27.2746C20.4809 26.9006 20.4721 26.5717 20.5604 26.0889C20.6802 25.559 20.8579 25.0439 21.0904 24.553C21.6673 23.2815 22.3731 23.2019 22.3413 22.7757C22.2529 21.5502 16.2381 19.8481 11.1799 22.1568C10.8433 22.3106 10.5713 22.4539 10.3769 22.5626Z" fill="#F8F6D0"/>
<path fill-rule="evenodd" clip-rule="evenodd" d="M18.9368 32.8116H13.9899C13.527 32.8116 12.4714 32.0689 12.4714 31.5162V30.1147C12.4713 29.9833 12.497 29.8532 12.5472 29.7318C12.5974 29.6103 12.6709 29.5 12.7637 29.407C12.8565 29.3141 12.9667 29.2403 13.0879 29.19C13.2092 29.1397 13.3392 29.1138 13.4705 29.1138H19.3811C19.5124 29.1138 19.6424 29.1397 19.7636 29.19C19.8849 29.2403 19.9951 29.3141 20.0879 29.407C20.1807 29.5 20.2542 29.6103 20.3044 29.7318C20.3546 29.8532 20.3803 29.9833 20.3802 30.1147V31.5162C20.3802 32.0689 19.3988 32.8116 18.9368 32.8116Z" fill="#F8F6D0"/>
<path d="M18.0402 31.8062H14.8106C14.4027 31.8062 14.0721 32.1372 14.0721 32.5455V33.2608C14.0721 33.669 14.4027 34 14.8106 34H18.0402C18.448 34 18.7787 33.669 18.7787 33.2608V32.5455C18.7787 32.1372 18.448 31.8062 18.0402 31.8062Z" fill="#F8F6D0"/>
<path d="M4.28522 15.5464H1.07948C0.483298 15.5464 0 16.0299 0 16.6264C0 17.2229 0.483298 17.7065 1.07948 17.7065H4.28522C4.8814 17.7065 5.3647 17.2229 5.3647 16.6264C5.3647 16.0299 4.8814 15.5464 4.28522 15.5464Z" fill="#F8F6D0"/>
<path d="M31.9214 15.5464H28.7157C28.1195 15.5464 27.6362 16.0299 27.6362 16.6264C27.6362 17.2229 28.1195 17.7065 28.7157 17.7065H31.9214C32.5176 17.7065 33.0009 17.2229 33.0009 16.6264C33.0009 16.0299 32.5176 15.5464 31.9214 15.5464Z" fill="#F8F6D0"/>
<path d="M7.04508 24.5088L4.77828 26.7778C4.35672 27.1998 4.35658 27.8838 4.77797 28.3056C5.19936 28.7274 5.8827 28.7273 6.30427 28.3053L8.57107 26.0363C8.99263 25.6143 8.99277 24.9303 8.57138 24.5085C8.14999 24.0867 7.46665 24.0869 7.04508 24.5088Z" fill="#F8F6D0"/>
<path d="M26.5861 4.94796L24.3193 7.21695C23.8977 7.63892 23.8976 8.32292 24.319 8.74472C24.7404 9.16651 25.4237 9.16637 25.8453 8.7444L28.1121 6.47542C28.5336 6.05345 28.5338 5.36944 28.1124 4.94765C27.691 4.52585 27.0076 4.52599 26.5861 4.94796Z" fill="#F8F6D0"/>
<path d="M8.4831 7.30509L6.21629 5.0361C5.79473 4.61414 5.11138 4.614 4.68999 5.03579C4.26861 5.45759 4.26875 6.14159 4.69031 6.56356L6.95711 8.83255C7.37867 9.25451 8.06202 9.25465 8.48341 8.83286C8.9048 8.41106 8.90466 7.72706 8.4831 7.30509Z" fill="#F8F6D0"/>
<path d="M28.0241 26.866L25.7573 24.597C25.3357 24.175 24.6524 24.1749 24.231 24.5967C23.8096 25.0185 23.8097 25.7025 24.2313 26.1245L26.4981 28.3935C26.9197 28.8154 27.603 28.8156 28.0244 28.3938C28.4458 27.972 28.4457 27.288 28.0241 26.866Z" fill="#F8F6D0"/>
<path d="M17.5419 4.28935V1.08052C17.5419 0.483764 17.0588 0 16.4629 0C15.867 0 15.3839 0.483764 15.3839 1.08052V4.28935C15.3839 4.8861 15.867 5.36986 16.4629 5.36986C17.0588 5.36986 17.5419 4.8861 17.5419 4.28935Z" fill="#F8F6D0"/>
</svg>

<svg width="33" height="34" fill="none" xmlns="http://www.w3.org/2000/svg"><path d="M16.463 25.133c4.694 0 8.498-3.808 8.498-8.506S21.157 8.12 16.463 8.12c-4.693 0-8.498 3.808-8.498 8.506s3.805 8.506 8.498 8.506Z" fill="#F8F6D0"/><path fill-rule="evenodd" clip-rule="evenodd" d="M10.377 22.563c.992.929 1.314 1.63 1.434 1.967.088.253.176.548.176.548.161.554.17.746.329 1.318.12.424.177.64.285.79.233.332.566.49.833.593 1.292.493 4.5.99 6.118.088.27-.14.503-.344.68-.592.249-.374.24-.703.328-1.186.12-.53.298-1.045.53-1.536.577-1.271 1.283-1.351 1.251-1.777-.088-1.226-6.103-2.928-11.161-.62-.337.155-.609.298-.803.407ZM18.937 32.812H13.99c-.463 0-1.519-.743-1.519-1.296v-1.401a1 1 0 0 1 1-1.001h5.91a.998.998 0 0 1 1 1v1.402c0 .553-.982 1.296-1.444 1.296Z" fill="#F8F6D0"/><path d="M18.04 31.806h-3.23a.739.739 0 0 0-.738.74v.715c0 .408.33.739.739.739h3.23a.739.739 0 0 0 .738-.74v-.715c0-.408-.331-.739-.739-.739ZM4.285 15.546H1.08a1.08 1.08 0 0 0 0 2.16h3.206a1.08 1.08 0 0 0 0-2.16ZM31.921 15.546h-3.205a1.08 1.08 0 0 0 0 2.16h3.205a1.08 1.08 0 0 0 0-2.16ZM7.045 24.509l-2.267 2.269a1.078 1.078 0 1 0 1.526 1.527l2.267-2.269a1.079 1.079 0 1 0-1.526-1.527ZM26.586 4.948 24.32 7.217a1.079 1.079 0 1 0 1.526 1.527l2.267-2.269a1.079 1.079 0 1 0-1.526-1.527ZM8.483 7.305 6.216 5.036A1.079 1.079 0 1 0 4.69 6.564l2.267 2.269a1.079 1.079 0 1 0 1.526-1.528ZM28.024 26.866l-2.267-2.269a1.078 1.078 0 1 0-1.526 1.527l2.267 2.27a1.079 1.079 0 1 0 1.526-1.528ZM17.542 4.29V1.08a1.08 1.08 0 1 0-2.158 0v3.21a1.08 1.08 0 1 0 2.158 0Z" fill="#F8F6D0"/></svg>
